icons/svg/transport/funicular.svg

<?xml version="1.0" encoding="UTF-8" standalone="no"?>
<!-- Created with Inkscape (http://www.inkscape.org/) -->

<svg
   xmlns:dc="http://purl.org/dc/elements/1.1/"
   xmlns:cc="http://creativecommons.org/ns#"
   xmlns:rdf="http://www.w3.org/1999/02/22-rdf-syntax-ns#"
   xmlns:svg="http://www.w3.org/2000/svg"
   xmlns="http://www.w3.org/2000/svg"
   xmlns:sodipodi="http://sodipodi.sourceforge.net/DTD/sodipodi-0.dtd"
   xmlns:inkscape="http://www.inkscape.org/namespaces/inkscape"
   inkscape:output_extension="org.inkscape.output.svg.inkscape"
   sodipodi:docname="funicular.svg"
   inkscape:version="0.91 r"
   sodipodi:version="0.32"
   id="svg2"
   height="580"
   width="580"
   version="1.0">
  <sodipodi:namedview
     inkscape:window-maximized="1"
     inkscape:current-layer="svg2"
     inkscape:window-y="1024"
     inkscape:window-x="34"
     inkscape:cy="174.57931"
     inkscape:cx="309.40533"
     inkscape:zoom="0.25"
     showgrid="false"
     id="base"
     pagecolor="#ffffff"
     bordercolor="#666666"
     borderopacity="1.0"
     objecttolerance="10.0"
     gridtolerance="10.0"
     guidetolerance="10.0"
     inkscape:pageopacity="0.0"
     inkscape:pageshadow="2"
     inkscape:window-width="1332"
     inkscape:window-height="739" />
  <metadata
     id="metadata10">
    <rdf:RDF>
      <cc:Work
         rdf:about="">
        <dc:format>image/svg+xml</dc:format>
        <dc:type
           rdf:resource="http://purl.org/dc/dcmitype/StillImage" />
        <cc:license
           rdf:resource="http://web.resource.org/cc/PublicDomain" />
        <dc:language>en</dc:language>
      </cc:Work>
    </rdf:RDF>
  </metadata>
  <defs
     id="defs4">
    <inkscape:perspective
       id="perspective12"
       inkscape:persp3d-origin="290 : 193.33333 : 1"
       inkscape:vp_z="580 : 290 : 1"
       inkscape:vp_y="0 : 1000 : 0"
       inkscape:vp_x="0 : 290 : 1"
       sodipodi:type="inkscape:persp3d" />
    <style
       id="style6"
       type="text/css">
   
    .fil0 {fill:#EF7900}
   
  </style>
    <inkscape:perspective
       sodipodi:type="inkscape:persp3d"
       inkscape:vp_x="0 : 29.116032 : 1"
       inkscape:vp_y="0 : 1000 : 0"
       inkscape:vp_z="58.232063 : 29.116032 : 1"
       inkscape:persp3d-origin="29.116032 : 19.410688 : 1"
       id="perspective6807" />
    <inkscape:perspective
       sodipodi:type="inkscape:persp3d"
       inkscape:vp_x="0 : 290 : 1"
       inkscape:vp_y="0 : 1000 : 0"
       inkscape:vp_z="580 : 290 : 1"
       inkscape:persp3d-origin="290 : 193.33333 : 1"
       id="perspective6954" />
    <marker
       id="ArrowStart"
       markerHeight="3"
       markerUnits="strokeWidth"
       markerWidth="4"
       orient="auto"
       refX="10"
       refY="5"
       viewBox="0 0 10 10">
      <path
         d="M 10 0 L 0 5 L 10 10 z"
         id="path2295" />
    </marker>
    <marker
       id="ArrowEnd"
       markerHeight="3"
       markerUnits="strokeWidth"
       markerWidth="4"
       orient="auto"
       refX="0"
       refY="5"
       viewBox="0 0 10 10">
      <path
         d="M 0 0 L 10 5 L 0 10 z"
         id="path2292" />
    </marker>
    <inkscape:perspective
       sodipodi:type="inkscape:persp3d"
       inkscape:vp_x="0 : 237.7245 : 1"
       inkscape:vp_y="0 : 1000 : 0"
       inkscape:vp_z="357.08099 : 237.7245 : 1"
       inkscape:persp3d-origin="178.5405 : 158.483 : 1"
       id="perspective7597" />
  </defs>
  <g
     id="g1327">
    <path
       id="path1329"
       style="fill:#111111;stroke:#eeeeee;stroke-width:3.40799999"
       d="M 66.275,1.768 C 24.94,1.768 1.704,23.139 1.704,66.804 L 1.704,516.927 C 1.704,557.771 22.598,579.156 63.896,579.156 L 515.92,579.156 C 557.227,579.156 578.149,558.84 578.149,516.927 L 578.149,66.804 C 578.149,24.203 557.227,1.768 514.627,1.768 C 514.624,1.768 66.133,1.625 66.275,1.768 z" />
  </g>
  <g
     transform="translate(879.29125,36.805119)"
     id="g2319">
    <path
       d=""
       style="fill:#ffffff;stroke:none"
       id="path2323" />
  </g>
  <g
     transform="translate(879.29125,36.805119)"
     id="g2325">
    <path
       d=""
       style="fill:#ffffff;stroke:none"
       id="path2329" />
  </g>
  <path
     style="fill:#ffffff;fill-opacity:1;fill-rule:evenodd;stroke:none"
     d="m 46.455939,514.2077 503.088121,-186.51867 -0.30765,41.13939 -471.034434,173.07225 -31.48376,0 z"
     id="rect3480"
     inkscape:connector-curvature="0"
     sodipodi:nodetypes="cccccc" />
  <path
     style="color:#000000;clip-rule:nonzero;display:inline;overflow:visible;visibility:visible;opacity:1;isolation:auto;mix-blend-mode:normal;color-interpolation:sRGB;color-interpolation-filters:linearRGB;solid-color:#000000;solid-opacity:1;fill:#ffffff;fill-opacity:1;fill-rule:nonzero;stroke:none;stroke-width:27.80186081;stroke-linecap:round;stroke-linejoin:round;stroke-miterlimit:4;stroke-dasharray:none;stroke-dashoffset:0;stroke-opacity:1;marker:none;color-rendering:auto;image-rendering:auto;shape-rendering:auto;text-rendering:auto;enable-background:accumulate"
     id="path4247"
     sodipodi:type="arc"
     sodipodi:cx="30.655684"
     sodipodi:cy="441.17789"
     sodipodi:rx="31.819805"
     sodipodi:ry="31.819805"
     sodipodi:start="0"
     sodipodi:end="3.1648443"
     sodipodi:open="true"
     d="M 62.475489,441.17789 A 31.819805,31.819805 0 0 1 46.35153,468.85713 31.819805,31.819805 0 0 1 14.320549,468.48472 31.819805,31.819805 0 0 1 -1.1555205,440.43809"
     transform="matrix(0.93190865,-0.36269307,0.36269307,0.93190865,0,0)" />
  <path
     style="color:#000000;clip-rule:nonzero;display:inline;overflow:visible;visibility:visible;opacity:1;isolation:auto;mix-blend-mode:normal;color-interpolation:sRGB;color-interpolation-filters:linearRGB;solid-color:#000000;solid-opacity:1;fill:#ffffff;fill-opacity:1;fill-rule:nonzero;stroke:none;stroke-width:36.48400116;stroke-linecap:round;stroke-linejoin:round;stroke-miterlimit:4;stroke-dasharray:none;stroke-dashoffset:0;stroke-opacity:1;marker:none;color-rendering:auto;image-rendering:auto;shape-rendering:auto;text-rendering:auto;enable-background:accumulate"
     d="m 133.53635,185.29439 c -7.47434,2.78465 -11.72635,10.93904 -13.49219,19.27667 l -26.500004,125.12289 26.500004,52.37711 c 3.07427,6.0763 6.01785,12.00798 13.49219,9.22333 L 425.55197,282.50057 c 7.47434,-2.78465 10.09578,-10.99415 13.49219,-19.27667 l 26.5,-64.62289 -26.5,-112.877101 c -1.6614,-7.07676 -6.01785,-12.00798 -13.49219,-9.22332 z m 230.72461,-63.70133 47.5332,-17.70904 c 4.28413,-1.59611 6.51318,2.06144 7.73242,6.86919 l 19,74.92133 c 1.21924,4.80775 -3.44829,11.0347 -7.73242,12.6308 l -66.5332,24.78772 c -4.28413,1.5961 -7.73438,-1.46708 -7.73438,-6.86847 l 0,-82 c 0,-5.40139 3.45025,-11.03543 7.73438,-12.63153 z m -66.02735,24.89223 29.03321,-10.81666 c 4.28413,-1.59611 7.73437,1.69187 7.73437,7.37433 l 0,143.80664 c 0,5.68246 -3.45024,11.54323 -7.73437,13.13934 l -29.03321,10.81666 c -4.28413,1.5961 -7.73242,-1.69455 -7.73242,-7.37701 l 0,-143.80664 c 0,-5.68246 3.44829,-11.54056 7.73242,-13.13666 z m -66.02539,24.96963 29.03321,-10.81667 c 4.28413,-1.59609 7.73242,1.69455 7.73242,7.37701 l 0,143.80664 c 0,5.68246 -3.44829,11.54057 -7.73242,13.13666 l -29.03321,10.81667 c -4.28413,1.5961 -7.73437,-1.69188 -7.73437,-7.37434 l 0,-143.80664 c 0,-5.68246 3.45024,-11.54323 7.73437,-13.13933 z m -84.52734,31.53464 47.5332,-17.70905 c 4.28413,-1.5961 7.73438,1.46708 7.73438,6.86847 l 0,82 c 0,5.40139 -3.45025,11.03543 -7.73438,12.63153 l -66.5332,24.78772 c -4.28413,1.5961 -8.95166,-1.15297 -7.73242,-6.8692 l 19,-89.07866 c 1.21924,-5.71623 3.44829,-11.03471 7.73242,-12.63081 z"
     id="rect4333"
     inkscape:connector-curvature="0"
     sodipodi:nodetypes="sscsssscsssssssssssssssssssssssssssssssssssssss" />
  <path
     style="color:#000000;clip-rule:nonzero;display:inline;overflow:visible;visibility:visible;opacity:1;isolation:auto;mix-blend-mode:normal;color-interpolation:sRGB;color-interpolation-filters:linearRGB;solid-color:#000000;solid-opacity:1;fill:#ffffff;fill-opacity:1;fill-rule:nonzero;stroke:none;stroke-width:27.80186081;stroke-linecap:round;stroke-linejoin:round;stroke-miterlimit:4;stroke-dasharray:none;stroke-dashoffset:0;stroke-opacity:1;marker:none;color-rendering:auto;image-rendering:auto;shape-rendering:auto;text-rendering:auto;enable-background:accumulate"
     id="path4247-2"
     sodipodi:type="arc"
     sodipodi:cx="243.88866"
     sodipodi:cy="443.69083"
     sodipodi:rx="31.819805"
     sodipodi:ry="31.819805"
     sodipodi:start="0"
     sodipodi:end="3.1648443"
     sodipodi:open="true"
     d="m 275.70846,443.69083 a 31.819805,31.819805 0 0 1 -16.12396,27.67924 31.819805,31.819805 0 0 1 -32.03098,-0.37241 31.819805,31.819805 0 0 1 -15.47607,-28.04663"
     transform="matrix(0.93190865,-0.36269307,0.36269307,0.93190865,0,0)" />
</svg>

<svg width="580" height="580" viewBox="0 0 580 580" fill="none" xmlns="http://www.w3.org/2000/svg">
<g clip-path="url(#clip0)">
<path d="M66.2751 1.76766C24.9401 1.76766 1.7041 23.1387 1.7041 66.8037V516.927C1.7041 557.771 22.5981 579.156 63.8961 579.156H515.92C557.227 579.156 578.149 558.84 578.149 516.927V66.8037C578.149 24.2027 557.227 1.76766 514.627 1.76766C514.624 1.76766 66.1331 1.62466 66.2751 1.76766Z" fill="#111111" stroke="#EEEEEE" stroke-width="3.408"/>
<path fill-rule="evenodd" clip-rule="evenodd" d="M46.4561 514.208L549.544 327.689L549.237 368.829L78.2021 541.901H46.7183L46.4561 514.208Z" fill="white"/>
<path d="M218.234 388.478C220.275 393.722 220.889 399.414 220.012 404.972C219.136 410.531 216.802 415.758 213.247 420.12C209.692 424.483 205.044 427.824 199.776 429.804C194.508 431.784 188.81 432.331 183.262 431.391C177.714 430.45 172.514 428.055 168.194 424.45C163.873 420.844 160.586 416.157 158.667 410.867" fill="white"/>
<path d="M133.536 185.294C126.062 188.079 121.81 196.233 120.044 204.571L93.5439 329.693L120.044 382.071C123.118 388.147 126.062 394.079 133.536 391.294L425.552 282.5C433.026 279.715 435.648 271.506 439.044 263.223L465.544 198.601L439.044 85.7234C437.383 78.6467 433.026 73.7155 425.552 76.5001L133.536 185.294ZM364.261 121.593L411.794 103.884C416.078 102.287 418.307 105.945 419.526 110.753L438.526 185.674C439.746 190.482 435.078 196.709 430.794 198.305L364.261 223.093C359.977 224.689 356.526 221.626 356.526 216.224V134.224C356.526 128.823 359.977 123.189 364.261 121.593V121.593ZM298.233 146.485L327.267 135.668C331.551 134.072 335.001 137.36 335.001 143.042V286.849C335.001 292.532 331.551 298.392 327.267 299.988L298.233 310.805C293.949 312.401 290.501 309.111 290.501 303.428V159.621C290.501 153.939 293.949 148.081 298.233 146.485ZM232.208 171.454L261.241 160.638C265.525 159.042 268.974 162.332 268.974 168.015V311.821C268.974 317.504 265.525 323.362 261.241 324.958L232.208 335.775C227.924 337.371 224.474 334.083 224.474 328.4V184.594C224.474 178.911 227.924 173.051 232.208 171.454V171.454ZM147.681 202.989L195.214 185.28C199.498 183.684 202.948 186.747 202.948 192.149V274.149C202.948 279.55 199.498 285.184 195.214 286.78L128.681 311.568C124.397 313.164 119.729 310.415 120.948 304.699L139.948 215.62C141.167 209.904 143.397 204.585 147.681 202.989Z" fill="white"/>
<path d="M417.859 313.482C419.9 318.726 420.514 324.418 419.637 329.976C418.761 335.535 416.427 340.762 412.872 345.124C409.317 349.487 404.669 352.828 399.401 354.808C394.133 356.788 388.435 357.335 382.887 356.395C377.339 355.454 372.139 353.059 367.818 349.453C363.498 345.848 360.211 341.161 358.292 335.871" fill="white"/>
</g>
<defs>
<clipPath id="clip0">
<path d="M0 0H580V580H0V0Z" fill="white"/>
</clipPath>
</defs>
</svg>
